storage/app/icons/phosphoricons/bold/chart-scatter-bold.svg

<svg xmlns="http://www.w3.org/2000/svg" fill="currentColor" viewBox="0 0 256 256"><path d="M236 208a12 12 0 0 1-12 12H32a12 12 0 0 1-12-12V48a12 12 0 0 1 24 0v148h180a12 12 0 0 1 12 12m-120-60a16 16 0 1 0 16-16 16 16 0 0 0-16 16m-8-40a16 16 0 1 0-16-16 16 16 0 0 0 16 16m-32 72a16 16 0 1 0-16-16 16 16 0 0 0 16 16m96-48a16 16 0 1 0-16-16 16 16 0 0 0 16 16m24-40a16 16 0 1 0-16-16 16 16 0 0 0 16 16m-24 72a16 16 0 1 0 16-16 16 16 0 0 0-16 16"/></svg>

<svg xmlns="http://www.w3.org/2000/svg" viewBox="0 0 256 256" fill="currentColor"><path d="M236,208a12,12,0,0,1-12,12H32a12,12,0,0,1-12-12V48a12,12,0,0,1,24,0V196H224A12,12,0,0,1,236,208ZM116,148a16,16,0,1,0,16-16A16,16,0,0,0,116,148Zm-8-40A16,16,0,1,0,92,92,16,16,0,0,0,108,108ZM76,180a16,16,0,1,0-16-16A16,16,0,0,0,76,180Zm96-48a16,16,0,1,0-16-16A16,16,0,0,0,172,132Zm24-40a16,16,0,1,0-16-16A16,16,0,0,0,196,92Zm-24,72a16,16,0,1,0,16-16A16,16,0,0,0,172,164Z"/></svg>
